X:1327
T:My Love is in America
R:Reel
N:Collected by Delaney
B:O'Neill's 1327
Z:Transcribed by Trish O'Neil
M:C|
L:1/8
K:D
FEFG ABcB|Addc Add2|FEFG ABcA|GBAG FDDE|
FEFG ABcB|Addc defg|afage dfed|cAGE TFDD2||
fdeg fdec|Addc Addg|fdeg fdcA|GBAG FDDg|
fdeg fdec|Addc defg|afage dfed|cAGE TFDD2|]
